icon/ir/ev-station.svg

<svg stroke-width="1.5" viewBox="0 0 24 24" fill="none" xmlns="http://www.w3.org/2000/svg" height="1em" width="1em">
  <path d="M21 5V9" stroke="currentColor" stroke-linecap="round" stroke-linejoin="round"/>
  <path d="M5 19V9C5 7.89543 5.89543 7 7 7H16C17.1046 7 18 7.89543 18 9V19C18 20.1046 17.1046 21 16 21H7C5.89543 21 5 20.1046 5 19Z" stroke="currentColor" stroke-width="1.5"/>
  <path d="M5 10V5C5 3.89543 5.89543 3 7 3H16C17.1046 3 18 3.89543 18 5V10" stroke="currentColor" stroke-width="1.5"/>
  <path d="M11.1667 11L9.5 14H13.5L11.8333 17" stroke="currentColor" stroke-linecap="round" stroke-linejoin="round"/>
</svg>

<svg width="24" height="24" stroke-width="1.5" fill="none" xmlns="http://www.w3.org/2000/svg"><path d="M21 5v4" stroke="currentColor" stroke-linecap="round" stroke-linejoin="round"/><path d="M5 19V9a2 2 0 0 1 2-2h9a2 2 0 0 1 2 2v10a2 2 0 0 1-2 2H7a2 2 0 0 1-2-2Z" stroke="currentColor"/><path d="M5 10V5a2 2 0 0 1 2-2h9a2 2 0 0 1 2 2v5" stroke="currentColor"/><path d="M11.167 11 9.5 14h4l-1.667 3" stroke="currentColor" stroke-linecap="round" stroke-linejoin="round"/></svg>
